X: 19466
T: Jackson's Maid
R: jig
M: 6/8
K: Amajor
EAB cBc|dBA GAB|cec BGE|ABA GFE|
EAB c2c|dBA GAB|cec dBG|1 ABG A2G:|2 ABG ~A3||
~e3 edc|ded dcd|ede =gfg|ea^g a2b|
c'ba =gfe|dBA =GAB|cec BGE|ABG ~A3:|

